src/svg/help.svg

<?xml version="1.0" encoding="UTF-8" standalone="no"?>
<svg width="35px" height="35px" viewBox="0 0 35 35" version="1.1" xmlns="http://www.w3.org/2000/svg" xmlns:xlink="http://www.w3.org/1999/xlink">
    <defs></defs>
    <g id="Page-1" stroke="none" stroke-width="1" fill="none" fill-rule="evenodd">
        <g id="help">
            <g id="bg-copy" fill="#FFFFFF" opacity="0.00999999978">
                <rect id="bg" x="0" y="0" width="35" height="35"></rect>
            </g>
            <path d="M14.3154,11.9409 C14.9214,11.4529 16.0454,11.0659 17.0014,11.0599 C18.5154,11.0509 19.3124,11.5159 20.0274,12.2109 C20.7154,12.8799 21.0314,13.5629 20.9804,14.6109 C20.9394,15.4639 20.7134,15.9589 20.3764,16.4219 C20.1784,16.7029 19.7994,17.0629 19.2384,17.4999 L18.7054,17.9299 C18.3754,18.2499 18.2314,18.3929 18.1054,18.7499 C18.0114,19.0159 17.9894,19.2559 17.9844,19.6719 L16.0074,19.6719 C16.0044,18.6559 15.9884,18.2969 16.0974,17.8589 C16.2044,17.4329 16.5994,17.1249 17.1604,16.6879 L17.7284,16.2419 C17.9164,16.1019 18.2224,15.8279 18.3364,15.6609 C18.5444,15.3749 18.6704,14.9789 18.6874,14.6359 C18.7034,14.3129 18.6064,13.9369 18.3434,13.6089 C18.0314,13.2189 17.6404,12.9709 16.8784,13.0049 C16.2774,13.0319 15.8174,13.3379 15.5364,13.6269 C15.2064,13.9669 15.0624,14.5309 15.0384,14.9769 L13.0614,14.9769 C13.1234,13.4929 13.4154,12.6649 14.3154,11.9409 L14.3154,11.9409 Z" id="curve-border" stroke="#FFFFFF" stroke-width="2"></path>
            <path d="M15.752,20.863 L18.226,20.863 L18.226,23.258 L15.752,23.258 L15.752,20.863 Z" id="mark-border" stroke="#FFFFFF" stroke-width="1.5"></path>
            <path d="M14.5156,11.9209 C15.2126,11.4719 15.8576,11.1269 16.9416,11.1269 C18.5586,11.1269 18.9246,11.3689 19.7536,12.0309 C20.5036,12.6299 20.9606,13.4069 20.9606,14.5109 C20.9606,15.1879 20.5966,15.9189 20.2586,16.3819 C20.0616,16.6629 19.7996,16.9419 19.2386,17.3799 L18.6266,17.8499 C18.3266,18.0839 18.0286,18.4379 17.9296,18.7499 C17.8676,18.9479 17.8716,19.3729 17.8676,19.7889 L16.0076,19.7889 C16.0386,18.9089 16.0416,18.1839 16.1766,17.8479 C16.3116,17.5119 16.6596,17.1249 17.2206,16.6879 L17.7676,16.2419 C17.9546,16.1019 18.2426,15.8879 18.3566,15.7209 C18.5646,15.4349 18.7456,15.0199 18.7456,14.6759 C18.7456,14.2799 18.7676,13.9999 18.5366,13.6739 C18.2666,13.2959 18.0206,12.8799 16.8586,12.8599 C15.9536,12.8439 15.5676,13.3069 15.3166,13.7069 C15.0646,14.1089 14.9786,14.5649 14.9786,14.9969 L13.0006,14.9969 C13.0636,13.5129 13.5416,12.5409 14.5156,11.9209" id="curve" fill="#000000"></path>
            <path d="M16.013,21.016 L17.992,21.016 L17.992,23 L16.013,23 L16.013,21.016 Z" id="mark" fill="#000000"></path>
        </g>
    </g>
</svg>

<svg height="35" viewBox="0 0 35 35" width="35" xmlns="http://www.w3.org/2000/svg"><g fill="none" fill-rule="evenodd"><path d="m14.3154 11.9409c.606-.488 1.73-.875 2.686-.881 1.514-.009 2.311.456 3.026 1.151.688.669 1.004 1.352.953 2.4-.041.853-.267 1.348-.604 1.811-.198.281-.577.641-1.138 1.078l-.533.43c-.33.32-.474.463-.6.82-.094.266-.116.506-.121.922h-1.977c-.003-1.016-.019-1.375.09-1.813.107-.426.502-.734 1.063-1.171l.568-.446c.188-.14.494-.414.608-.581.208-.286.334-.682.351-1.025.016-.323-.081-.699-.344-1.027-.312-.39-.703-.638-1.465-.604-.601.027-1.061.333-1.342.622-.33.34-.474.904-.498 1.35h-1.977c.062-1.484.354-2.312 1.254-3.036z" stroke="#fff" stroke-width="2"/><path d="m15.752 20.863h2.474v2.395h-2.474z" stroke="#fff" stroke-width="1.5"/><g fill="#000"><path d="m14.5156 11.9209c.697-.449 1.342-.794 2.426-.794 1.617 0 1.983.242 2.812.904.75.599 1.207 1.376 1.207 2.48 0 .677-.364 1.408-.702 1.871-.197.281-.459.56-1.02.998l-.612.47c-.3.234-.598.588-.697.9-.062.198-.058.623-.062 1.039h-1.86c.031-.88.034-1.605.169-1.941s.483-.723 1.044-1.16l.547-.446c.187-.14.475-.354.589-.521.208-.286.389-.701.389-1.045 0-.396.022-.676-.209-1.002-.27-.378-.516-.794-1.678-.814-.905-.016-1.291.447-1.542.847-.252.402-.338.858-.338 1.29h-1.978c.063-1.484.541-2.456 1.515-3.076"/><path d="m16.013 21.016h1.979v1.984h-1.979z"/></g></g></svg>
